X:424
M:C
L:1/8
K:C
f/e/d/c/ G/c/B/d/ c<CCG/F/|E>Gc>G EGcG|E<GcB/c/ d<DDG/F/|
E>Gc>E F>Ad>f|f/e/d/c/ G/c/B/d/ c<CC||
|:e/f/|g>c e/f/g/e/ a/g/f/e/ de/f/|g>c a/g/f/e/ f<dde/f/|1 c>d c/d/e/f/ g/f/e/d/
c>G|
c>A G/A/F/G/ E<CC:|2 g/f/e/g/ f/e/d/f/ e/d/c/e/ d/c/B/d/|c/B/c/A/ G/A/F/G/
E<CC||

